static/logos/togglPlan-glyph-color.svg

<svg width="50" height="38" viewBox="0 0 50 38" fill="none" xmlns="http://www.w3.org/2000/svg">
<path d="M26.4929 6.6405C26.6962 6.43838 26.9919 6.34652 27.269 6.34652C27.5462 6.34652 27.8419 6.43838 28.0452 6.6405C28.2484 6.84258 28.3408 7.13652 28.3408 7.4121C28.3408 7.70609 28.2484 7.98168 28.0452 8.1838C27.8419 8.38588 27.5462 8.47774 27.269 8.47774C26.9919 8.47774 26.6962 8.38588 26.4929 8.1838C26.2897 7.98168 26.1973 7.68769 26.1973 7.4121C26.1973 7.13652 26.2897 6.84258 26.4929 6.6405ZM32.7017 16.1757C32.6647 15.349 32.4245 14.4671 31.7963 13.8792C31.0941 13.2362 30.0778 12.9238 29.1354 12.9238H24.9223C24.4972 12.9238 24.1462 12.6115 24.1462 12.2257C24.1462 11.895 24.3679 11.6377 24.6636 11.5459C24.6636 11.5459 24.7375 11.5275 24.8114 11.5092C25.569 11.8766 26.419 12.0236 27.269 12.0236C28.5625 12.0236 29.8745 11.6377 30.8354 10.7559C31.7593 9.89237 32.2028 8.67981 32.2028 7.44886C32.2028 6.21795 31.7593 5.00537 30.8354 4.14187C30.5582 3.88464 30.2626 3.68254 29.93 3.49882C30.8169 3.70092 31.7408 3.44371 32.3876 2.35974L30.5952 1.07367L29.0984 3.14974C28.5071 2.96603 27.8973 2.87416 27.269 2.87416C25.9755 2.87416 24.6636 3.25998 23.7027 4.14187C22.7788 5.00537 22.3353 6.21795 22.3353 7.44886C22.3353 8.67981 22.7603 9.89237 23.7027 10.7559C23.7766 10.8294 23.869 10.9028 23.9614 10.9764C23.869 11.0315 23.7951 11.0682 23.7951 11.0682C23.444 11.2519 23.0375 11.5643 22.6125 12.0052C22.0212 12.6299 21.4298 13.5668 21.4298 14.7978C21.4298 14.7978 21.356 17.4434 24.4049 17.4434H26.6223C27.1397 17.4434 27.6571 17.7741 27.6571 18.2701C27.6571 18.4539 27.6017 18.6192 27.5093 18.7663H31.7593C32.369 18.0865 32.7202 17.076 32.7017 16.1757Z" fill="#A876F5"/>
<path d="M37.26 6.64086C37.4633 6.43873 37.7589 6.34692 38.0361 6.34692C38.3133 6.34692 38.6089 6.43873 38.8122 6.64086C39.0154 6.84293 39.1078 7.13687 39.1078 7.41246C39.1078 7.70645 39.0154 7.98203 38.8122 8.18416C38.6089 8.38623 38.3133 8.47809 38.0361 8.47809C37.7589 8.47809 37.4633 8.38623 37.26 8.18416C37.0567 7.98203 36.9643 7.68809 36.9643 7.41246C36.9459 7.13687 37.0567 6.84293 37.26 6.64086ZM44.7624 16.1761C44.7254 15.3493 44.4849 14.4675 43.8568 13.8795C43.1544 13.2366 42.1384 12.9242 41.1959 12.9242L36.2991 12.8875C35.985 12.8875 35.7633 12.7037 35.7633 12.4097C35.7633 12.1709 35.8741 11.8219 36.1697 11.7667C36.7426 11.9505 37.3709 12.0423 37.9807 12.0423C39.2742 12.0423 40.5862 11.6565 41.5468 10.7746C42.4709 9.91113 42.9143 8.69852 42.9143 7.46762C42.9143 6.23666 42.4709 5.0241 41.5468 4.1606C41.2697 3.90338 40.9742 3.70128 40.6417 3.51756C41.5284 3.71965 42.4525 3.46244 43.099 2.37848L41.3067 1.09241L39.81 3.16848C39.2187 2.98476 38.6089 2.8929 37.9807 2.8929C36.6871 2.8929 35.3752 3.27872 34.4143 4.1606C33.4904 5.0241 33.0469 6.23666 33.0469 7.46762C33.0469 8.69852 33.4904 9.91113 34.4143 10.7746C34.6915 11.0318 34.9871 11.2523 35.3197 11.4177C35.098 11.583 34.8763 11.7851 34.6545 12.0239C34.0632 12.6486 33.4719 13.5856 33.4719 14.8166C33.4719 14.8166 33.398 17.4621 36.4469 17.4621H38.6644C39.1818 17.4621 39.6991 17.7928 39.6991 18.2889C39.6991 18.4726 39.6437 18.638 39.5513 18.785H43.8014C44.4479 18.0868 44.7994 17.0763 44.7624 16.1761Z" fill="#A876F5"/>
<path d="M49.9059 14.8162V10.8478C49.0007 10.958 48.6678 10.315 48.6678 9.69032V0.0264893H44.1406V10.4069C44.1406 11.6929 44.3254 12.7769 44.8061 13.4566C45.5265 14.4855 46.506 15.1653 48.4276 15.1653C48.7971 15.1469 49.3887 15.0735 49.9059 14.8162Z" fill="#A876F5"/>
<path d="M16.4956 10.003C16.2184 10.2786 15.8488 10.3888 15.4793 10.3888C15.1097 10.3888 14.7401 10.2786 14.4629 10.003C14.2042 9.7458 14.0749 9.37835 14.0749 8.99255C14.0749 8.60676 14.2042 8.25766 14.4629 7.98208C14.7401 7.70649 15.1097 7.59628 15.4793 7.59628C15.8488 7.59628 16.2184 7.70649 16.4956 7.98208C16.7542 8.23931 16.8836 8.60676 16.8836 8.99255C16.8836 9.37835 16.7542 9.72745 16.4956 10.003ZM19.8771 4.61995C18.713 3.42574 17.1053 2.92969 15.5162 2.92969C13.927 2.92969 12.3194 3.44411 11.1553 4.61995C10.0096 5.7774 9.49219 7.39415 9.49219 9.04771C9.49219 10.7012 10.0281 12.3179 11.1553 13.4754C12.3194 14.6696 13.927 15.1656 15.5162 15.1656C17.1053 15.1656 18.713 14.6512 19.8771 13.4754C21.0228 12.3179 21.5402 10.7012 21.5402 9.04771C21.5402 7.39415 21.0043 5.7774 19.8771 4.61995Z" fill="#A876F5"/>
<path d="M7.8248 10.8662C7.06719 10.8662 6.75304 10.6273 6.47586 10.2782C6.29107 10.0394 6.19868 9.70867 6.19868 9.26776V7.22846H8.73028V3.55398H6.21719V0.0264893H2.98345V1.3493C2.98345 2.81908 1.85627 3.99492 0.470384 3.99492C0.359513 3.99492 0.267121 3.99492 0.15625 3.97655V7.22846H1.85627V10.4987C1.85627 11.7848 2.09649 12.7769 2.55845 13.4566C3.27911 14.4855 4.07369 15.1653 6.0324 15.1653C7.15958 15.1653 8.12049 14.908 8.73028 14.559V10.7191C8.50852 10.8111 8.19437 10.8662 7.8248 10.8662Z" fill="#A876F5"/>
<path d="M6.48617 31.7155C6.94787 31.5134 7.33564 31.2194 7.66862 30.852C7.98298 30.4845 8.24149 30.062 8.40745 29.566C8.57394 29.0883 8.66649 28.5555 8.66649 27.9676C8.66649 27.398 8.57394 26.8836 8.40745 26.3875C8.24149 25.8915 7.98298 25.4689 7.66862 25.1015C7.35426 24.734 6.94787 24.4584 6.48617 24.238C6.02394 24.0359 5.50638 23.9257 4.89681 23.9257C4.32394 23.9257 3.78829 24.0175 3.34468 24.2196C2.88244 24.4217 2.49468 24.6973 2.16223 25.0464C1.84787 25.3955 1.58883 25.818 1.40426 26.314C1.21968 26.8101 1.14574 27.3612 1.14574 27.9492C1.14574 28.5555 1.23777 29.1066 1.40426 29.5843C1.58883 30.0803 1.82925 30.503 2.16223 30.852C2.47606 31.2011 2.88244 31.4767 3.34468 31.6787C3.80638 31.8809 4.32394 31.9727 4.89681 31.9727C5.50638 32.0095 6.02394 31.9176 6.48617 31.7155ZM0.0180833 23.0805H1.21968V25.2301C1.36702 24.9361 1.55213 24.6422 1.77394 24.3482C1.99574 24.0542 2.27287 23.797 2.60531 23.5766C2.91914 23.3561 3.28936 23.1724 3.71436 23.0437C4.12074 22.9152 4.60106 22.8417 5.1 22.8417C5.82074 22.8417 6.48617 22.9703 7.07713 23.2275C7.66862 23.4847 8.16755 23.8522 8.59255 24.3115C8.99894 24.7708 9.33191 25.3219 9.55319 25.9466C9.775 26.5712 9.88564 27.251 9.88564 27.9859C9.88564 28.7208 9.775 29.4006 9.55319 30.0252C9.33191 30.6499 9.01755 31.2011 8.59255 31.6604C8.18617 32.1197 7.66862 32.4872 7.07713 32.7444C6.48617 33.0016 5.82074 33.1302 5.1 33.1302C4.58245 33.1302 4.12074 33.0567 3.71436 32.9281C3.30797 32.7995 2.93777 32.6158 2.62394 32.3953C2.30957 32.1748 2.03245 31.9176 1.79255 31.6236C1.55213 31.3297 1.34894 31.0357 1.20106 30.7418V36.8047H0V23.0805H0.0180833Z" fill="#A876F5"/>
<path d="M13.2143 19.1489H11.9766V32.9098H13.2143V19.1489Z" fill="#A876F5"/>
<path d="M18.4979 28.2799C17.7405 28.3534 17.2043 28.5739 16.8905 28.9229C16.5761 29.272 16.4102 29.6761 16.4102 30.1355C16.4102 30.705 16.5947 31.146 16.9644 31.4767C17.3336 31.8074 17.8884 31.9727 18.6086 31.9727C19.1634 31.9727 19.6623 31.8809 20.0873 31.6971C20.5123 31.5134 20.882 31.2562 21.1772 30.9439C21.4729 30.6315 21.6947 30.2825 21.8426 29.8966C21.9905 29.5108 22.0644 29.1066 22.0644 28.7025V27.8941L18.4979 28.2799ZM15.9293 24.2747C16.1139 23.9808 16.3729 23.7419 16.6873 23.5215C17.0011 23.301 17.3894 23.1356 17.833 23.0254C18.2761 22.9152 18.8123 22.8417 19.4405 22.8417C20.7527 22.8417 21.7314 23.1356 22.3602 23.7419C22.9884 24.3482 23.3022 25.2485 23.3022 26.461V32.9097H22.1017V30.7969C21.8054 31.5501 21.3251 32.1197 20.6969 32.5055C20.0501 32.8914 19.3299 33.0934 18.4979 33.0934C17.9623 33.0934 17.4814 33.02 17.0564 32.873C16.6501 32.726 16.299 32.5239 16.0219 32.2483C15.7447 31.9911 15.5416 31.6787 15.3937 31.3113C15.2458 30.9439 15.1719 30.5581 15.1719 30.1355C15.1719 29.2168 15.4676 28.5187 16.0772 28.041C16.6687 27.5634 17.4261 27.2694 18.332 27.1775L21.6208 26.8652C21.9533 26.8285 22.1197 26.6815 22.1197 26.461V26.1119C22.1197 25.4506 21.9166 24.9177 21.5102 24.5319C21.1038 24.1461 20.4378 23.944 19.5144 23.944C17.833 23.944 16.8719 24.5687 16.6134 25.7997L15.5416 25.2301C15.6155 24.8626 15.7447 24.5503 15.9293 24.2747Z" fill="#A876F5"/>
<path d="M27.8474 23.5031C28.457 23.0622 29.1958 22.8417 30.083 22.8417C31.3394 22.8417 32.282 23.2459 32.8916 24.0359C33.5011 24.8259 33.8155 25.8731 33.8155 27.1775V32.9097H32.5777V27.0857C32.5777 26.1119 32.3373 25.3403 31.857 24.7892C31.3767 24.238 30.7112 23.9624 29.8426 23.9624C29.2144 23.9624 28.6788 24.0726 28.2538 24.3115C27.8288 24.5503 27.4772 24.8626 27.2187 25.2668C26.9602 25.671 26.7756 26.1487 26.6644 26.6631C26.5538 27.1959 26.4985 27.7471 26.4985 28.335V32.873H25.2969V23.0805H26.4612V25.2668C26.7756 24.5319 27.2373 23.944 27.8474 23.5031Z" fill="#A876F5"/>
</svg>

<svg xmlns="http://www.w3.org/2000/svg" width="84.211" height="64" fill="none" viewBox="0 0 50 38"><path fill="#A876F5" d="M26.493 6.64c.203-.202.499-.293.776-.293s.573.091.776.293c.203.203.296.497.296.772 0 .294-.093.57-.296.772-.203.202-.499.294-.776.294s-.573-.092-.776-.294c-.203-.202-.296-.496-.296-.772 0-.275.093-.57.296-.771Zm6.209 9.536c-.037-.827-.277-1.709-.906-2.297-.702-.643-1.718-.955-2.66-.955h-4.214c-.425 0-.776-.313-.776-.698 0-.331.222-.588.518-.68l.147-.037c.758.368 1.608.515 2.458.515 1.294 0 2.606-.386 3.566-1.268.924-.864 1.368-2.076 1.368-3.307 0-1.231-.444-2.444-1.368-3.307a4.485 4.485 0 0 0-.905-.643c.887.202 1.81-.055 2.458-1.14l-1.793-1.285-1.497 2.076a6.13 6.13 0 0 0-1.829-.276c-1.293 0-2.605.386-3.566 1.268-.924.863-1.368 2.076-1.368 3.307 0 1.23.425 2.443 1.368 3.307.074.073.166.147.258.22-.092.055-.166.092-.166.092-.351.184-.758.496-1.183.937-.59.625-1.182 1.562-1.182 2.793 0 0-.074 2.645 2.975 2.645h2.217c.518 0 1.035.331 1.035.827a.92.92 0 0 1-.148.496h4.25c.61-.68.961-1.69.943-2.59ZM37.26 6.64c.203-.201.499-.293.776-.293s.573.092.776.294c.203.202.296.496.296.771 0 .294-.093.57-.296.772-.203.202-.499.294-.776.294s-.573-.092-.776-.294c-.203-.202-.296-.496-.296-.772a1.02 1.02 0 0 1 .296-.771Zm7.502 9.536c-.037-.827-.277-1.708-.905-2.296-.703-.643-1.719-.956-2.661-.956l-4.897-.037c-.314 0-.536-.183-.536-.477 0-.24.111-.588.407-.643a6.008 6.008 0 0 0 1.81.275c1.294 0 2.606-.386 3.567-1.267.924-.864 1.367-2.076 1.367-3.307 0-1.231-.443-2.444-1.367-3.307a4.483 4.483 0 0 0-.905-.643c.886.202 1.81-.056 2.457-1.14l-1.792-1.286-1.497 2.076a6.13 6.13 0 0 0-1.83-.275c-1.293 0-2.605.386-3.566 1.268-.924.863-1.367 2.076-1.367 3.307 0 1.23.443 2.443 1.367 3.307.277.257.573.477.906.643a4.978 4.978 0 0 0-.666.606c-.59.625-1.182 1.562-1.182 2.793 0 0-.074 2.645 2.975 2.645h2.217c.518 0 1.035.33 1.035.827a.92.92 0 0 1-.148.496h4.25a3.756 3.756 0 0 0 .961-2.609Z"/><path fill="#A876F5" d="M49.906 14.816v-3.968c-.905.11-1.238-.533-1.238-1.158V.026H44.14v10.38c0 1.287.184 2.37.665 3.05.72 1.03 1.7 1.71 3.622 1.71.37-.02.96-.093 1.478-.35ZM16.496 10.003c-.278.276-.647.386-1.017.386-.37 0-.739-.11-1.016-.386-.259-.257-.388-.625-.388-1.01 0-.386.13-.735.388-1.01.277-.277.647-.387 1.016-.387.37 0 .74.11 1.017.386.258.257.388.625.388 1.01 0 .386-.13.735-.388 1.011Zm3.381-5.383c-1.164-1.194-2.772-1.69-4.36-1.69-1.59 0-3.198.514-4.362 1.69-1.145 1.157-1.663 2.774-1.663 4.428 0 1.653.536 3.27 1.663 4.427 1.164 1.195 2.772 1.69 4.361 1.69 1.59 0 3.197-.514 4.361-1.69 1.146-1.157 1.663-2.774 1.663-4.427 0-1.654-.536-3.27-1.663-4.428ZM7.825 10.866c-.758 0-1.072-.239-1.35-.588-.184-.239-.276-.57-.276-1.01v-2.04H8.73V3.554H6.217V.026H2.983V1.35c0 1.47-1.127 2.646-2.513 2.646-.11 0-.203 0-.314-.018v3.251h1.7v3.27c0 1.287.24 2.279.702 2.959.721 1.028 1.516 1.708 3.474 1.708 1.128 0 2.088-.257 2.698-.606v-3.84c-.221.092-.536.147-.905.147ZM6.486 31.715c.462-.202.85-.496 1.183-.863a3.84 3.84 0 0 0 .738-1.286 4.83 4.83 0 0 0 .26-1.598c0-.57-.093-1.084-.26-1.58A3.839 3.839 0 0 0 7.67 25.1c-.315-.367-.721-.643-1.183-.863a3.89 3.89 0 0 0-1.59-.312c-.572 0-1.108.091-1.551.294-.463.202-.85.477-1.183.826-.314.35-.573.772-.758 1.268-.184.496-.258 1.047-.258 1.635 0 .606.092 1.158.258 1.635.185.496.425.919.758 1.268.314.35.72.625 1.183.827.461.202.979.294 1.552.294.61.037 1.127-.055 1.59-.258ZM.018 23.081H1.22v2.15c.147-.295.332-.589.554-.883.222-.294.499-.551.831-.771.314-.22.684-.405 1.11-.533a4.671 4.671 0 0 1 1.385-.202c.72 0 1.386.128 1.977.386.592.257 1.09.624 1.516 1.083.406.46.739 1.01.96 1.636.222.624.333 1.304.333 2.039 0 .735-.111 1.415-.333 2.04a4.669 4.669 0 0 1-.96 1.634c-.407.46-.924.827-1.516 1.084-.59.258-1.256.386-1.977.386-.518 0-.98-.073-1.386-.202a4.005 4.005 0 0 1-1.921-1.304 4.898 4.898 0 0 1-.592-.882v6.063H0V23.08h.018ZM13.214 19.149h-1.237v13.76h1.237V19.15ZM18.498 28.28c-.758.073-1.294.294-1.608.643-.314.349-.48.753-.48 1.213 0 .569.185 1.01.554 1.34.37.331.924.497 1.645.497.554 0 1.053-.092 1.478-.276a3.29 3.29 0 0 0 1.09-.753c.296-.313.518-.662.666-1.047.148-.386.221-.79.221-1.194v-.809l-3.566.386Zm-2.569-4.005c.185-.294.444-.533.758-.753.314-.221.702-.386 1.146-.497.443-.11.98-.183 1.608-.183 1.312 0 2.29.294 2.92.9.627.606.941 1.506.941 2.719v6.449h-1.2v-2.113c-.297.753-.777 1.323-1.405 1.708-.647.386-1.367.588-2.2.588a4.396 4.396 0 0 1-1.44-.22c-.407-.147-.758-.35-1.035-.625a2.545 2.545 0 0 1-.628-.937 3.096 3.096 0 0 1-.222-1.175c0-.92.296-1.617.905-2.095.592-.478 1.35-.772 2.255-.864l3.289-.312c.332-.037.499-.183.499-.404v-.35c0-.66-.203-1.193-.61-1.58-.406-.385-1.072-.587-1.996-.587-1.681 0-2.642.625-2.9 1.856l-1.072-.57c.074-.367.203-.68.387-.955ZM27.847 23.503c.61-.44 1.349-.661 2.236-.661 1.256 0 2.199.404 2.809 1.194.61.79.923 1.837.923 3.141v5.733h-1.237v-5.824c0-.974-.24-1.746-.721-2.297-.48-.551-1.146-.827-2.014-.827-.629 0-1.164.11-1.59.35a2.864 2.864 0 0 0-1.034.955 4.268 4.268 0 0 0-.555 1.396 8.165 8.165 0 0 0-.166 1.672v4.538h-1.201v-9.792h1.164v2.186a4.127 4.127 0 0 1 1.386-1.764Z"/></svg>
